brandFactory_export/3.Masa/Carrito de la compra_3Masa.svg

<?xml version="1.0" encoding="UTF-8"?>
<svg width="24px" height="24px" viewBox="0 0 24 24" version="1.1" xmlns="http://www.w3.org/2000/svg" xmlns:xlink="http://www.w3.org/1999/xlink">
    <title>3.Masa/Carrito de la compra_3Masa</title>
    <g id="Symbols" stroke="none" stroke-width="1" fill="none" fill-rule="evenodd">
        <g id="3.Masa/Carrito-de-la-compra_3Masa" fill="#5CB615" fill-rule="nonzero">
            <path d="M23.4621849,5.81848739 C23.3344538,5.65378151 23.1394958,5.55966387 22.9310924,5.55966387 L6.06722689,5.55966387 C5.79159664,4.01344538 5.58655462,2.55798319 5.58319328,2.52436975 C5.3210084,1.06218487 3.94285714,0.00336134454 2.29915966,0.00336134454 L0.672268908,0.00336134454 C0.302521008,0.00336134454 0,0.305882353 0,0.675630252 C0,1.04537815 0.302521008,1.34789916 0.672268908,1.34789916 L2.29915966,1.34789916 C3.27394958,1.34789916 4.11428571,1.95630252 4.25882353,2.75966387 C4.53445378,4.30252101 6.06722689,13.210084 6.22184874,14.2016807 C6.41680672,15.4319328 6.87394958,16.3966387 7.58655462,17.0689076 C8.26554622,17.7109244 9.15966387,18.0470588 10.1647059,18.0470588 L17.3747899,18.0470588 C18.3697479,18.0470588 19.2134454,17.707563 19.8857143,17.0386555 C20.5210084,16.4033613 20.9478992,15.4857143 21.3042017,14.2689076 C21.4621849,13.7277311 23.3781513,7.1394958 23.5865546,6.4 C23.6403361,6.19495798 23.5932773,5.97983193 23.4621849,5.81848739 Z M10.1647059,23.6201681 C9.56302521,23.6201681 9.08235294,23.4487395 8.73277311,23.112605 C8.36638655,22.7596639 8.18151261,22.2655462 8.18151261,21.6369748 C8.18151261,21.0084034 8.36638655,20.5142857 8.73277311,20.1613445 C9.08235294,19.8252101 9.56638655,19.6537815 10.1647059,19.6537815 C10.7630252,19.6537815 11.2470588,19.8252101 11.5966387,20.1613445 C11.9630252,20.5142857 12.1478992,21.0084034 12.1478992,21.6369748 C12.1478992,22.2655462 11.9630252,22.7596639 11.5966387,23.112605 C11.2470588,23.4487395 10.7663866,23.6201681 10.1647059,23.6201681 Z M16.7193277,23.6201681 C16.1176471,23.6201681 15.6369748,23.4487395 15.287395,23.112605 C14.9210084,22.7596639 14.7361345,22.2655462 14.7361345,21.6369748 C14.7361345,21.0084034 14.9210084,20.5142857 15.287395,20.1613445 C15.6369748,19.8252101 16.1210084,19.6537815 16.7193277,19.6537815 C17.3176471,19.6537815 17.8016807,19.8252101 18.1512605,20.1613445 C18.5142857,20.5142857 18.702521,21.0084034 18.702521,21.6369748 C18.702521,22.2655462 18.5176471,22.7596639 18.1512605,23.112605 C17.8016807,23.4487395 17.3210084,23.6201681 16.7193277,23.6201681 Z" id="Carrito-de-la-compra_3Masa"></path>
        </g>
    </g>
</svg>

<svg width="24" height="24" viewBox="0 0 24 24" xmlns="http://www.w3.org/2000/svg"><path d="M23.462 5.818a.669.669 0 00-.53-.258H6.066a88.254 88.254 0 01-.484-3.036C5.321 1.062 3.943.004 2.3.004H.672A.674.674 0 000 .675c0 .37.303.672.672.672H2.3c.975 0 1.815.608 1.96 1.412.275 1.543 1.808 10.45 1.963 11.442.195 1.23.652 2.195 1.365 2.867.679.642 1.573.978 2.578.978h7.21c.995 0 1.838-.34 2.51-1.008.636-.636 1.063-1.553 1.42-2.77.157-.541 2.073-7.13 2.282-7.869a.656.656 0 00-.125-.582zM10.165 23.62c-.602 0-1.083-.171-1.432-.507-.367-.353-.551-.847-.551-1.476s.184-1.123.55-1.476c.35-.336.834-.507 1.433-.507.598 0 1.082.171 1.432.507.366.353.55.847.55 1.476s-.184 1.123-.55 1.476c-.35.336-.83.507-1.432.507zm6.554 0c-.601 0-1.082-.171-1.432-.507-.366-.353-.55-.847-.55-1.476s.184-1.123.55-1.476c.35-.336.834-.507 1.432-.507.599 0 1.083.171 1.432.507.363.353.552.847.552 1.476s-.185 1.123-.552 1.476c-.35.336-.83.507-1.432.507z" fill="#5CB615" fill-rule="nonzero"/></svg>
